X:2192
T:I am a youthful lady, my troubles are great 
C:Traditional
O:Isle of Man
Z:Clague Coll. 
B:Kiaull Vannin #192 
N:See also KV 276
M:4/4 
L:1/4 
Q:120 
K:D 
B|AB EE|G AB G|A B EE|E3B|e>d ef|ge fB/c/|dc B A|B3 G/A/| 
B A/G/ F E|e d/c/ d/e/ f|B B A c|B3 G/A/|B A/G/ F E|e>c B E|A G/F/ E E|E3|| 

